!!!!SEGMENT: pl-wnifc--6637-n_geistlener-barbara--marzenie-op-53.krn
!!!cenid: 18xx:3965
!!!COM: Geistlener, Barbara
!!!COM-rismID: pe50046845
!!!CDT: <1897->1912
!!!CNT:
!!!OTL: Marzenie op. 53
!!!PDT:
!!!AGN:
!!!SMS-siglum: PL-Wnifc
!!!SMS-shelfmark: 6637/n
!!!SMS-shelfwork: W
!!!SMS-variant:
!!!SMS-altvar:
!!!NIFC-rismSourceID: 1001149168
!!!NIFC-rismChildID: 1001149168
!!!NIFC-islandoraID: nifc:212937
!!!URL-pdf-islandora: https://repozytorium.nifc.pl/islandora/object/nifc%3A212937/datastream/PDF/view
!!!URL-scan: https://polish.musicsources.pl/pl/lokalizacje/galeria/druki-muzyczne/16874 @EN{Scan on Polish Music Sources Website} @PL{Skany w portalu Dziedzictwo Muzyki Polskiej w otwartym dostępie}
!!!ONB-nifc:
!!!AIN: 2 piano 1 vox
!!!key: F
**kern	**kern	**dynam	**kern	**text	**dynam
*part3	*part2	*part2	*part1	*part1	*part1
*staff3	*staff2	*	*staff1	*staff1	*
*I"[Piano]	*I"[Piano]	*	*I"[Voce]	*	*
*I'piano	*I'piano	*	*I'V	*	*
*ICklav	*ICklav	*	*ICvox	*	*
*Ipiano	*Ipiano	*	*Ivox	*	*
*clefF4	*clefG2	*	*clefG2	*	*
*k[b-]	*k[b-]	*	*k[b-]	*	*
*F:	*F:	*	*F:	*	*
*M2/4	*M2/4	*	*M2/4	*	*
=1	=1	=1	=1	=1	=1
!	!LO:TX:a:B:t=Moderato.	!	!	!	!
2r	8r	pp	2ryy	.	.
.	(8cc\L 8ccc	<	.	.	.
.	8dd\ 8ddd	.	.	.	.
.	8ee\J) 8eee	.	.	.	.
=2	=2	=2	=2	=2	=2
!	!LO:TX:b:i:t=dolce	!	!	!	!
8FF^:\L 8C: 8A:	4.ff^\ 4.aa 4.ccc 4.fff	[	2ryy	.	.
8c\	.	.	.	.	.
8A\ 8f	.	.	.	.	.
8c\J	(8ee\ 8eee	.	.	.	.
=3	=3	=3	=3	=3	=3
8AA\L	8dd\L 8ddd	.	2ryy	.	.
8c\	8cc\ 8ccc	.	.	.	.
8A\ 8f	8b-\ 8bb-	.	.	.	.
8c\J	8a\J 8aa	.	.	.	.
=4	=4	=4	=4	=4	=4
8BB-\L	4a\) 4aa	.	2ryy	.	.
8B-\	.	.	.	.	.
8G\ 8d	4g\ 4gg	.	.	.	.
8B-\J	.	.	.	.	.
=5	=5	=5	=5	=5	=5
8GG\L	8r	<	2ryy	.	.
8B-\	(8b-\L 8bb-	.	.	.	.
8G\ 8d	8cc\ 8ccc	.	.	.	.
8B-\J	8dd\J) 8ddd	[[	.	.	.
!!LO:LB:g=original	!	!	!	!	!
=6	=6	=6	=6	=6	=6
8CC/L 8C	4.ee^\ 4.gg 4.bb- 4.eee	>	2ryy	.	.
8c\	.	.	.	.	.
8G\ 8B- 8e	.	.	.	.	.
8c\J	8dd\ 8ddd	]	.	.	.
=7	=7	=7	=7	=7	=7
8EE\L	(8cc\L 8ccc	.	2ryy	.	.
8c\	8dd\ 8ddd	.	.	.	.
8G\ 8B- 8e	8b-\ 8bb-	.	.	.	.
8c\J	8cc\J) 8ccc	.	.	.	.
=8	=8	=8	=8	=8	=8
8FF\L	4a\ 4aa	.	2ryy	.	.
8c\	.	.	.	.	.
8A\ 8f	4r	.	.	.	.
8c\J	.	.	.	.	.
=9	=9	=9	=9	=9	=9
8FF\L 8F	8r	<	2ryy	.	.
8A\	(8cc\L 8ccc	.	.	.	.
8B-\	8dd\ 8ddd	.	.	.	.
8c\J	8ee\J) 8eee	[[	.	.	.
=10	=10	=10	=10	=10	=10
8FF^:\L 8C: 8A:	((>4.gg;<\ 4.ggg	.	2ryy	.	.
8c\	.	.	.	.	.
8A\ 8f	.	.	.	.	.
8c\J	8ff\)) 8fff	.	.	.	.
!!LO:LB:g=original	!	!	!	!	!
=11	=11	=11	=11	=11	=11
8AA\L	(8ee\L 8eee	.	2ryy	.	.
8c\	8ff\ 8fff	.	.	.	.
8A\ 8f	8cc\ 8ccc	.	.	.	.
8c\J	8a\J) 8aa	.	.	.	.
=12	=12	=12	=12	=12	=12
8BB-\L	4a\ 4aa	.	2ryy	.	.
8B-\	.	.	.	.	.
8G\ 8d	4g\ 4gg	.	.	.	.
8B-\J	.	.	.	.	.
=13	=13	=13	=13	=13	=13
8GG\L	8r	<	2ryy	.	.
8B-\	(8b-\L 8bb-	.	.	.	.
8G\ 8d	8cc\ 8ccc	.	.	.	.
8B-\J	8dd\J) 8ddd	[[	.	.	.
=14	=14	=14	=14	=14	=14
8CC:\L 8BB-: 8E:	((>4.ee^\ 4.gg 4.bb- 4.eee	>	2ryy	.	.
8c\	.	.	.	.	.
8G\ 8B- 8e	.	.	.	.	.
!	!LO:TX:b:i:t=ri-tar-dan-do...:ext=cd	!	!	!	!
8c\J	8dd\)) 8ddd	.	.	.	.
=15	=15	=15	=15	=15	=15
8EE\L	8cc\L 8ccc	.	2ryy	.	.
8E\	8b-\J 8bb-	.	.	.	.
8B-\	8d\L 8dd	]	.	.	.
8c\J	8e\J 8ee	.	.	.	.
=16	=16	=16	=16	=16	=16
8FF\L	4f\ 4a 4cc 4ff	.	2ryy	.	.
8C\	.	.	.	.	.
8F\ 8A	4r	.	.	.	.
8F\J	.	.	.	.	.
!!LO:LB:g=original	!	!	!	!	!
=17||	=17||	=17||	=17||	=17||	=17||
*M2/4	*M2/4	*	*M2/4	*	*
!	!	!	!LO:TX:a:B:t=Moderato.	!	!
4FF/	8r	.	8r	.	.
.	8c\L	.	(8cc\	Ma-	.
4r	8f\ 8a	.	8dd\	-rzy-	.
.	8c\J	.	8ee\	-łam	.
=18	=18	=18	=18	=18	=18
4FF:\ 4C: 4A:	8r	.	4.ff^\)	za-	.
.	8c\L	.	.	.	.
4r	8f\ 8a	.	.	.	.
.	8c\J	.	8ee\	-wsze	.
=19	=19	=19	=19	=19	=19
4AA/	8r	.	(8dd\	o	.
.	8c\L	.	8cc\	nie-	.
4r	8f\ 8a	.	8b-\	-bies-	.
.	8c\J	.	8a/)	-kich	.
=20	=20	=20	=20	=20	=20
4BB-/	8r	.	(4a/	o-	.
.	8d\L	.	.	.	.
4r	8g\ 8b-	.	4g/)	-czach	.
.	8d\J	.	.	.	.
=21	=21	=21	=21	=21	=21
4GG/	8r	.	8r	.	.
.	8d\L	.	(8b-\	któ-	.
4r	8g\ 8b-	.	8cc\	-re	.
.	8d\J	.	8dd\)	w mem	.
!!LO:PB:g=original	!	!	!	!	!
=22	=22	=22	=22	=22	=22
4C/	8r	.	(4.ee\	ser-	.
.	8g\L	.	.	.	.
4r	8b-\ 8cc 8ee	.	.	.	.
.	8g\J	.	8dd\)	-cu	.
=23	=23	=23	=23	=23	=23
4E\	8r	.	(8cc\	u-	.
.	8c\L	.	8dd\	.	.
4r	8e\ 8g 8b-	.	8b-\	-tkwi-	.
.	8B-\J	.	8cc\)	.	.
=24	=24	=24	=24	=24	=24
4F\	8r	.	4a/	-ły	.
.	8A\L	.	.	.	.
4r	8c\	.	4r	.	.
.	8f\J	.	.	.	.
=25	=25	=25	=25	=25	=25
4C/	8r	.	8r	.	.
!	!	!	!	!	!LO:HP:b
.	8c\L	.	(8cc\	co	<
4r	8e\ 8b-	.	8dd\	.	.
.	8c\J	.	8ee\	za	.
=26	=26	=26	=26	=26	=26
4FF:\ 4C: 4A:	8r	.	4.gg^;\)	roz-	.
.	8c\L	.	.	.	.
4r	8f\ 8a	.	.	.	.
.	8c\J	.	8ff\	-kosz	.
!!LO:LB:g=original	!	!	!	!	!
=27	=27	=27	=27	=27	=27
4AA/	8r	.	(8ee\	w to	.
.	8c\L	.	8ff\	.	.
4r	8f\ 8a	.	8cc\	nie-	.
.	8c\J	.	8a/)	-bo	.
=28	=28	=28	=28	=28	=28
4BB-/	8r	.	(4a/	pa-	.
.	8d\L	.	.	.	.
4r	8g\ 8b-	.	4g/)	-trzeć	.
.	8d\J	.	.	.	.
=29	=29	=29	=29	=29	=29
4GG/	8r	.	8r	.	.
.	8d\L	.	(8b-\	i	.
4r	8g\ 8b-	.	8cc\	szcze-	.
.	8d\J	.	8dd\	-rze	.
=30	=30	=30	=30	=30	=30
*tremolo	*	*	*	*	*
16CC\LL	2G/ 2B- 2e	.	4.ee\	ko-	.
16C\	.	.	.	.	.
16CC\	.	.	.	.	.
16C\	.	.	.	.	.
16CC\	.	.	.	.	.
16C\	.	.	.	.	.
16CC\	.	.	8dd\)	-chać	.
16C\JJ	.	.	.	.	.
=31	=31	=31	=31	=31	=31
2C\ 2G	2c/ 2e 2b- 2cc	.	(8cc\	i	.
.	.	.	8b-\	ko-	.
.	.	.	(8d;/	-cha-	.
.	.	.	8e/))	-ną	.
!!LO:LB:g=original	!	!	!	!	!
=32	=32	=32	=32	=32	=32
!	!	!	!LO:TX:a:B:t=a tempo.	!	!
!	!	!	!LO:TX:b:t=cres_cen_do:dur=5e5q:ext=ud:problem:text with extention lines	!	!LO:HP:b
4FF/ 4F	8r	.	4f/	być	<
.	8c\L	.	.	.	.
4r	8f\ 8a	.	8r	.	.
.	8c\J	.	8a/	Te	.
=33	=33	=33	=33	=33	=33
4EE/ 4E	8r	.	4.a/	o-	.
.	8c\L 8e 8a	.	.	.	.
4r	8c\ 8e 8a	.	.	.	.
.	8c\J 8e 8a	.	8a/	-czy	.
=34	=34	=34	=34	=34	=34
4EE/ 4E	8r	.	4.bn/	mnie	.
.	8d\L 8e 8g#X 8bn	.	.	.	.
!	!LO:TX:b:i:t=ac_ce_le_ran_do:ext=ud	!	!	!	!
4r	8d\ 8e 8g# 8b	.	.	.	.
.	8d\J 8e 8g# 8b	.	8b/	je-	.
=35	=35	=35	=35	=35	=35
4AAA/ 4AA	8r	.	4.cc\	-dną	.
.	8e\L 8a 8cc	.	.	.	.
4r	8e\ 8a 8cc	.	.	.	.
.	8e\J 8a 8cc	.	8bn\	ko-	.
=36	=36	=36	=36	=36	=36
4AA/	8r	.	4.a/	-cha-	.
.	8e\L 8a 8cc	.	.	.	.
4r	8e\ 8a 8cc	.	.	.	.
.	8e\J 8a 8cc	.	8cc\	-ją	[
=37	=37	=37	=37	=37	=37
!	!	!	!	!	!LO:HP:b
4GGG/ 4GG	8r	.	4.cc\	sło-	<
.	8e\L 8g 8cc	.	.	.	.
4r	8e\ 8g 8cc	.	.	.	.
.	8e\J 8g 8cc	.	8cc\	-dko	.
=38	=38	=38	=38	=38	=38
4GGG/ 4GG	8r	.	4.dd\	spo-	.
.	8f\L 8bn 8dd	<	.	.	.
4r	8f\ 8b 8dd	.	.	.	.
.	8f\J 8b 8dd	.	8dd\	-glą-	.
=39	=39	=39	=39	=39	=39
8CC\L 8C	2g;\ 2b-X 2ee	.	N[4.ee\	-da-	.
8C^^\ 8c	.	.	.	.	.
8BB-^^\ 8B-	.	.	.	.	.
8GG^^\J 8G	.	.	8r	.	.
=40	=40	=40	=40	=40	=40
8EE^^\L 8E	2r	.	4ryy	.	.
8CC^^\ 8C	.	.	.	.	.
8BBB-^^\ 8BB-	.	.	4ee\N]	-ją	[
8GGG^^\J 8GG	.	[[	.	.	.
=41||	=41||	=41||	=41||	=41||	=41||
*M4/4	*M4/4	*	*M4/4	*	*
*met(c)	*met(c)	*	*met(c)	*	*
!	!	!	!LO:TX:a:B:t=Andante.	!	!LO:DY:b
4FFF/ 4FF	4r	sf	(2.ff;\	Ach!.	ff
4r	4c/ 4f 4a	>	.	.	.
2r	4c/ 4f 4a	.	.	.	.
.	4c/ 4f 4a	]]	4ee\)	o-	.
!!LO:PB:g=original	!	!	!	!	!
=42	=42	=42	=42	=42	=42
4AA/	4r	.	(4dd\	-czy	.
4r	4c/ 4f 4a	.	4cc\	o	.
2r	4c/ 4f 4a	.	4b-\	was	.
.	4c/ 4f 4a	.	4a/)	ma-	.
=43	=43	=43	=43	=43	=43
4BBB-/ 4BB-	4r	.	4a/	-rzy-	.
4r	4d/ 4g 4b-	.	4r	.	.
2r	4d/ 4g 4b-	.	4g/	-łam	.
.	4d/ 4g 4b-	.	4r	.	.
=44	=44	=44	=44	=44	=44
4GGG/ 4GG	4r	.	4r	.	.
4r	4d/ 4g 4b-	.	(4b-\	te	.
2r	4d/ 4g 4b-	.	4cc\	o-	.
.	4d/ 4g 4b-	.	4dd\	-czy	.
=45	=45	=45	=45	=45	=45
4CC/ 4C	4r	.	2.ee\)	wi-	.
4r	4g/ 4b- 4ee	.	.	.	.
2r	4g/ 4b- 4ee	.	.	.	.
.	4g/ 4b- 4ee	.	(4dd\	-dzą	.
=46	=46	=46	=46	=46	=46
4EE/ 4E	4r	.	4cc\	wi-	.
4r	4g/ 4b- 4ee	.	4dd\	-dzą	.
2r	4g/ 4b- 4ee	.	4b-\	tyl-	.
.	4g/ 4b- 4ee	.	4cc\)	-ko	.
!!LO:LB:g=original	!	!	!	!	!
=47	=47	=47	=47	=47	=47
4FF/ 4F	4r	.	4a/	mnie	.
4r	4c/ 4f 4a	.	4r	.	.
2r	4c/ 4f 4a	.	2r	.	.
.	4c/ 4f 4a	.	.	.	.
=48	=48	=48	=48	=48	=48
4C/	4r	.	4r	.	.
4r	4c/ 4e 4b-	.	(4cc\	po-	.
2r	4c/ 4e 4b-	.	4dd\	-cie-	.
.	4c/ 4e 4b-	.	4ee\	-chą	.
=49	=49	=49	=49	=49	=49
4FF/	4r	.	4gg\	ser-	.
4r	4c/ 4f 4a	.	4ff\)	.	.
2r	4c/ 4f 4a	.	[2bb-;\	-ca	.
.	4c/ 4f 4a	.	.	.	.
=50	=50	=50	=50	=50	=50
4AA/	4r	.	4bb-\]	.	.
4r	4c/ 4f 4a 4cc	.	(4aa\	po-	.
2r	4c/ 4f 4a 4cc	.	4gg\	-cie-	.
.	4c/ 4f 4a 4cc	.	4ff\	-chę	.
=51	=51	=51	=51	=51	=51
4BB-/	4r	.	4ee\	ży-	.
4r	4d/ 4g 4b- 4dd	.	4r	.	.
2r	4d/ 4g 4b- 4dd	.	4r	.	.
.	4d/ 4g 4b- 4dd	.	4dd\)	-cia	.
!!LO:LB:g=original	!	!	!	!	!
=52	=52	=52	=52	=52	=52
4GGG/ 4GG	4r	.	(4cc#X\	nie	.
4r	4d/ 4g 4b-	.	4dd\	za-	.
2r	4d/ 4g 4b-	.	4b-\	-po-	.
.	4d/ 4g 4b-	.	4g/)	-mnę	.
=53	=53	=53	=53	=53	=53
4CC/ 4C	4r	.	(2cc\	ni-	.
4r	4c/ 4f 4a	.	.	.	.
2r	4c/ 4f 4a	.	4r	.	.
.	4c/ 4f 4a	.	4dd\)	-gdy	.
=54	=54	=54	=54	=54	=54
!	!	!	!	!	!LO:HP:b
4CC/ 4C	4r	.	2.eett;\	ni-	>
4r	4e\ 4b- 4cc	.	.	.	.
2r	4e\ 4b- 4cc	.	.	.	.
.	4e\ 4b- 4cc	.	(<8dd/L	-gdy	]
.	.	.	8ee/J	.	.
=55	=55	=55	=55	=55	=55
2.FF\ 2.F	4r	.	4ff\)	.	.
.	4a\ 4cc 4ff	.	4r	.	.
.	4a\ 4cc 4ff	.	2r	.	.
4ryy	4a\ 4cc 4ff	.	.	.	.
=56||	=56||	=56||	=56||	=56||	=56||
*^	*^	*	*	*	*
4E-X/	4E-\	4ff^^/	4ff\	.	1r	.	.
4F\ 4A 4c	2.ryy	4f/ 4a 4cc	2.ryy	.	.	.	.
4F\ 4A 4c	.	4f/ 4a 4cc	.	.	.	.	.
4F\ 4A 4c	.	4f/ 4a 4cc	.	.	.	.	.
!!LO:LB:g=original	!	!	!	!	!	!	!
=57	=57	=57	=57	=57	=57	=57	=57
!	!	!LO:TX:b:i:t=ri.tar.dan.do.:ext=ct	!	!	!	!	!
4D/	4D\	4ff^^/	4ff\	.	1r	.	.
4F\ 4B- 4d	2.ryy	4f/ 4b- 4dd	2.ryy	.	.	.	.
4F\ 4B- 4d	.	4f/ 4b- 4dd	.	.	.	.	.
4F\ 4B- 4d	.	4f/ 4b- 4dd	.	.	.	.	.
=58	=58	=58	=58	=58	=58	=58	=58
4D-X/	4D-\	(4ff^^/	4ff\	.	1r	.	.
4F\ 4G 4B-	2.ryy	4f/ 4b- 4dd-X	2ryy	.	.	.	.
4F\ 4G 4B-	.	4f/ 4b- 4dd-	.	.	.	.	.
4F\ 4G 4B-	.	4f\) 4b- 4dd- 4gg	4gg/	.	.	.	.
*v	*v	*	*	*	*	*	*
*	*v	*v	*	*	*	*
=59	=59	=59	=59	=59	=59
!	!LO:TX:b:i:t=morendo	!	!	!	!
(16FF\LL	2a;\ 2cc 2ff 2aa	.	1r	.	.
16C\	.	.	.	.	.
16F\	.	.	.	.	.
16A\	.	.	.	.	.
16c\	.	.	.	.	.
16f\	.	.	.	.	.
16a>\	.	.	.	.	.
16cc>\	.	.	.	.	.
16ff>\	2ryy	ppp	.	.	.
16aa>\	.	.	.	.	.
16ddd>\JJ)	.	.	.	.	.
16ryy	.	.	.	.	.
4ryy	.	.	.	.	.
==	==	==	==	==	==
*-	*-	*-	*-	*-	*-
!!!system-decoration: s1{(s2,s3)}
!!!RDF**kern: > = above
!!!RDF**kern: < = below
!!!RDF**kern: N = linked
!!!ENC: Filip Voros
!!!END: 2022-07-31
!!!ENC: Natalia Wrzos
!!!END: 2022-08-29!!!YEC: Copyright 2022 Narodowy Instytut Fryderyka Chopina (https://polishscores.org)
!!!YEM: License CC-BY-4.0 (https://creativecommons.org/licenses/by/4.0)
